X:1740
T:Bonnie Susie Cleland
S:Digital Tradition, scleland
D:From the singing of Lisa Null, can be heard on her record 
D:"The Feathered Maiden", Child #65
M:4/4
L:1/8
Q:2/4=100
W:There lived a lady in Scotland
W:Hey my love, ho my joy
W:There lived a lady in Scotland
W:So dearly she loved me
W:
W:There lived a lady in Scotland
W:She fell in love with an Englishman
W:Bonnie Susie Cleland, she's to be burned in Dundee
W:
W:The father to his daughter came
W:Will you forsake this Englishman?
W:
W:If you will not this Englishman forsake
W:Then I will burn you at the stake
W:
W:Where may I find a pretty little boy
W:To carry tokens to my joy
W:
W:Bring to him this right hand glove
W:Tell him to find another love
W:
W:Bring to him this wee pen knife
W:Tell him to find another wife
W:
W:Bring to him this gay gold ring
W:Tell him I'm going to my burning
W:
W:The father he put up the stake
W:The brothers the fire did make
W:Bonnie Susie Cleland, she was burned at Dundee
K:G
D2|G2G2 G2B2|A2G-E D4|E2G2 A4|E2G2 A3A|\
c2c2 e2e2|d2B-A G2B2|c3B A2G2|A6B2|
c2c2 e2e2|d2B-A G2B2|c3B A2GG|E2G2 A4|\
G3F G2B2|E2D4GF|G2B2 A2G-F|G6||
W:


